u/stations/toyo/symbols/TR/TR08.svg

<?xml version="1.0" encoding="UTF-8"?>
<svg xmlns="http://www.w3.org/2000/svg" xmlns:xlink="http://www.w3.org/1999/xlink" width="75" height="75" viewBox="0 0 75 75">
<defs>
<clipPath id="clip-0">
<path clip-rule="nonzero" d="M 2 1 L 19 1 L 19 22.75 L 2 22.75 Z M 2 1 "/>
</clipPath>
<clipPath id="clip-1">
<path clip-rule="nonzero" d="M 20 1 L 37 1 L 37 22.75 L 20 22.75 Z M 20 1 "/>
</clipPath>
<clipPath id="clip-2">
<rect x="0" y="0" width="39" height="23"/>
</clipPath>
<g id="source-6" clip-path="url(#clip-2)">
<g clip-path="url(#clip-0)">
<path fill-rule="nonzero" fill="rgb(0%, 0%, 0%)" fill-opacity="1" d="M 8.53125 4.449219 L 2.757812 4.449219 L 2.757812 1.089844 L 18.632812 1.089844 L 18.632812 4.449219 L 12.765625 4.449219 L 12.765625 22.324219 L 8.53125 22.324219 Z M 8.53125 4.449219 "/>
</g>
<g clip-path="url(#clip-1)">
<path fill-rule="nonzero" fill="rgb(0%, 0%, 0%)" fill-opacity="1" d="M 20.847656 1.089844 C 25.273438 1.089844 25.273438 1.089844 25.273438 1.089844 C 29.699219 1.089844 34.992188 0.992188 34.992188 6.917969 C 34.992188 9.386719 33.355469 11.363281 30.757812 11.757812 C 31.914062 11.855469 32.585938 13.042969 32.972656 13.929688 C 36.242188 22.324219 36.242188 22.324219 36.242188 22.324219 C 31.625 22.324219 31.625 22.324219 31.625 22.324219 C 29.21875 15.609375 29.21875 15.609375 29.21875 15.609375 C 28.546875 14.128906 28.0625 13.4375 26.332031 13.4375 C 24.984375 13.4375 24.984375 13.4375 24.984375 13.4375 C 24.984375 22.324219 24.984375 22.324219 24.984375 22.324219 C 20.847656 22.324219 20.847656 22.324219 20.847656 22.324219 Z M 24.984375 10.078125 C 26.332031 10.078125 26.332031 10.078125 26.332031 10.078125 C 28.351562 10.078125 30.660156 9.78125 30.660156 7.214844 C 30.660156 4.746094 28.351562 4.449219 26.332031 4.449219 C 24.984375 4.449219 24.984375 4.449219 24.984375 4.449219 Z M 24.984375 10.078125 "/>
</g>
</g>
<clipPath id="clip-3">
<path clip-rule="nonzero" d="M 1 0.847656 L 19 0.847656 L 19 26.851562 L 1 26.851562 Z M 1 0.847656 "/>
</clipPath>
<clipPath id="clip-4">
<path clip-rule="nonzero" d="M 22 0.847656 L 40 0.847656 L 40 26.851562 L 22 26.851562 Z M 22 0.847656 "/>
</clipPath>
<clipPath id="clip-5">
<rect x="0" y="0" width="41" height="27"/>
</clipPath>
<g id="source-9" clip-path="url(#clip-5)">
<g clip-path="url(#clip-3)">
<path fill-rule="nonzero" fill="rgb(0%, 0%, 0%)" fill-opacity="1" d="M 1.378906 13.921875 C 1.378906 7.621094 3.285156 0.847656 10.09375 0.847656 C 17.4375 0.847656 18.878906 8.085938 18.878906 13.921875 C 18.878906 19.757812 17.363281 26.851562 10.09375 26.851562 C 2.351562 26.851562 1.378906 19.179688 1.378906 13.921875 M 13.835938 13.921875 C 13.835938 10.679688 13.835938 4.59375 10.089844 4.59375 C 6.417969 4.59375 6.417969 10.679688 6.417969 13.921875 C 6.417969 17.09375 6.382812 23.105469 10.089844 23.105469 C 13.871094 23.105469 13.835938 17.09375 13.835938 13.921875 Z M 13.835938 13.921875 "/>
</g>
<g clip-path="url(#clip-4)">
<path fill-rule="nonzero" fill="rgb(0%, 0%, 0%)" fill-opacity="1" d="M 34.792969 12.878906 L 34.792969 12.949219 C 38.109375 14.5 39.621094 16.660156 39.621094 19.539062 C 39.621094 24.617188 35.945312 26.851562 30.976562 26.851562 C 26.078125 26.851562 22.121094 24.726562 22.121094 19.613281 C 22.121094 16.800781 23.703125 14.855469 26.726562 13.382812 L 26.726562 13.3125 C 24.207031 12.191406 22.550781 10.105469 22.550781 7.472656 C 22.550781 2.976562 25.972656 0.847656 30.542969 0.847656 C 34.976562 0.847656 38.972656 2.683594 38.972656 6.898438 C 38.972656 9.167969 37.566406 11.800781 34.792969 12.914062 L 34.792969 12.878906 M 27.164062 19.539062 C 27.164062 21.632812 28.964844 23.105469 30.976562 23.105469 C 32.996094 23.105469 34.578125 21.84375 34.578125 19.757812 C 34.578125 17.273438 32.453125 16.085938 30.367188 15.398438 C 28.5625 16.261719 27.164062 17.417969 27.164062 19.539062 Z M 34.148438 7.765625 C 34.148438 5.890625 32.957031 4.59375 31.050781 4.59375 C 29.210938 4.59375 27.375 5.601562 27.375 7.621094 C 27.375 9.78125 29.609375 10.75 31.339844 11.40625 C 32.742188 10.898438 34.148438 9.3125 34.148438 7.765625 Z M 34.148438 7.765625 "/>
</g>
</g>
<clipPath id="clip-6">
<rect x="0" y="0" width="75" height="75"/>
</clipPath>
<g id="source-11" clip-path="url(#clip-6)">
<path fill-rule="nonzero" fill="rgb(55.291748%, 80.39093%, 41.96167%)" fill-opacity="1" d="M 75 37.5 C 75 16.789062 58.210938 0 37.5 0 C 16.789062 0 0 16.789062 0 37.5 C 0 58.210938 16.789062 75 37.5 75 C 58.210938 75 75 58.210938 75 37.5 Z M 75 37.5 "/>
<path fill-rule="nonzero" fill="rgb(100%, 100%, 100%)" fill-opacity="1" d="M 70.601562 37.5 C 70.601562 19.21875 55.78125 4.398438 37.5 4.398438 C 19.21875 4.398438 4.402344 19.21875 4.402344 37.5 C 4.402344 55.78125 19.21875 70.601562 37.5 70.601562 C 55.78125 70.601562 70.601562 55.78125 70.601562 37.5 Z M 70.601562 37.5 "/>
<use xlink:href="#source-6" transform="matrix(1, 0, 0, 1, 18, 10)"/>
<use xlink:href="#source-9" transform="matrix(1, 0, 0, 1, 17, 38)"/>
</g>
</defs>
<use xlink:href="#source-11"/>
</svg>

<svg xmlns="http://www.w3.org/2000/svg" xmlns:xlink="http://www.w3.org/1999/xlink" width="75" height="75"><defs><clipPath id="b"><path d="M2 1h17v21.75H2Zm0 0"/></clipPath><clipPath id="c"><path d="M20 1h17v21.75H20Zm0 0"/></clipPath><clipPath id="a"><path d="M0 0h39v23H0z"/></clipPath><clipPath id="e"><path d="M1 .848h18v26.004H1Zm0 0"/></clipPath><clipPath id="f"><path d="M22 .848h18v26.004H22Zm0 0"/></clipPath><clipPath id="d"><path d="M0 0h41v27H0z"/></clipPath><clipPath id="g"><path d="M0 0h75v75H0z"/></clipPath><g id="h" clip-path="url(#a)"><g clip-path="url(#b)"><path d="M8.531 4.45H2.758V1.09h15.875v3.36h-5.867v17.874H8.53Zm0 0"/></g><g clip-path="url(#c)"><path d="M20.848 1.09h4.425c4.426 0 9.72-.098 9.72 5.828 0 2.469-1.638 4.445-4.235 4.84 1.156.097 1.828 1.285 2.215 2.172l3.27 8.394h-4.618l-2.406-6.715c-.672-1.48-1.157-2.171-2.887-2.171h-1.348v8.886h-4.136Zm4.136 8.988h1.348c2.02 0 4.328-.297 4.328-2.863 0-2.469-2.308-2.766-4.328-2.766h-1.348Zm0 0"/></g></g><g id="i" clip-path="url(#d)"><g clip-path="url(#e)"><path d="M1.379 13.922c0-6.3 1.906-13.074 8.715-13.074 7.344 0 8.785 7.238 8.785 13.074 0 5.836-1.516 12.93-8.785 12.93-7.742 0-8.715-7.672-8.715-12.93m12.457 0c0-3.242 0-9.328-3.746-9.328-3.672 0-3.672 6.086-3.672 9.328 0 3.172-.035 9.183 3.672 9.183 3.781 0 3.746-6.011 3.746-9.183Zm0 0"/></g><g clip-path="url(#f)"><path d="M34.793 12.879v.07c3.316 1.551 4.828 3.711 4.828 6.59 0 5.078-3.676 7.313-8.644 7.313-4.899 0-8.856-2.125-8.856-7.239 0-2.812 1.582-4.758 4.606-6.23v-.07c-2.52-1.122-4.176-3.208-4.176-5.84 0-4.496 3.422-6.625 7.992-6.625 4.434 0 8.43 1.836 8.43 6.05 0 2.27-1.407 4.903-4.18 6.016v-.035m-7.629 6.66c0 2.094 1.8 3.566 3.813 3.566 2.02 0 3.601-1.261 3.601-3.347 0-2.485-2.125-3.672-4.21-4.36-1.805.864-3.204 2.02-3.204 4.141Zm6.984-11.773c0-1.875-1.191-3.172-3.097-3.172-1.84 0-3.676 1.008-3.676 3.027 0 2.16 2.234 3.129 3.965 3.785 1.402-.508 2.808-2.094 2.808-3.64Zm0 0"/></g></g><g id="j" clip-path="url(#g)"><path fill="#8DCD6B" d="M75 37.5C75 16.79 58.21 0 37.5 0S0 16.79 0 37.5 16.79 75 37.5 75 75 58.21 75 37.5Zm0 0"/><path fill="#FFF" d="M70.602 37.5c0-18.281-14.82-33.102-33.102-33.102-18.281 0-33.098 14.82-33.098 33.102 0 18.281 14.817 33.102 33.098 33.102S70.602 55.782 70.602 37.5Zm0 0"/><use xlink:href="#h" transform="translate(18 10)"/><use xlink:href="#i" transform="translate(17 38)"/></g></defs><use xlink:href="#j"/></svg>
